images_files/dinosaursVG/raptorB.svg

<svg width="283" height="97" viewBox="0 0 283 97" fill="none" xmlns="http://www.w3.org/2000/svg">
<path d="M2 20.5212L3.52109 13.9149H9.70686L46.9229 2L53.1086 3.06173L68.2181 15.5665L80.6911 19.5775L106.347 17.454L143.664 31.4924L231.804 36.3292L282 53.0809L247.928 42.8175L276.22 54.2606L244.48 42.8175C254.181 46.2386 273.969 56.8323 272.265 55.7942C270.561 54.756 251.544 46.3959 242.654 44.3511L265.268 55.7942L237.179 44.3511L257.865 55.7942L229.269 42.8175L247.928 54.2606L222.677 42.8175L240.728 54.2606L218.317 42.8175L229.269 50.4855L215.173 42.8175L218.317 46.8285L208.988 42.8175H179.377L139.304 51.4293L133.219 57.3278L120.138 59.4512L134.335 71.4841L122.065 94.8421H114.561L118.313 91.539L114.561 83.399L120.037 88.9436L128.453 74.2677L115.575 63.5324L118.313 49.6597L111.721 83.399L106.347 94.8421H94.6851L99.9582 91.539L96.0034 83.399L102.189 88.9436L106.347 83.399M2 20.5212L9.70686 26.6557L46.9229 25.358L72.2744 34.2057L75.6563 44.4691M2 20.5212L34.8556 17.454L39.5202 19.5775M106.347 83.399L96.6118 76.863L84.4431 66.2905L83.6319 65.5856M106.347 83.399L93.7725 71.838L106.931 82.2895M106.347 83.399L106.931 82.2895M112.431 58.5075L104.116 55.7942M104.116 55.7942L103.92 54.1426M104.116 55.7942L112.431 57.5637H106.347M103.305 48.9519L102.189 44.4691L94.6851 40.2222M103.305 48.9519C103.954 50.1788 109.186 52.7663 111.721 53.9066L103.64 51.7832M103.305 48.9519L103.64 51.7832M82.6178 51.7832L93.7725 48.0082L89.6148 44.4691M82.6178 51.7832L82.2122 59.4512L83.6319 65.5856M82.6178 51.7832L78.2573 47.2019L75.6563 44.4691M75.6563 44.4691L68.2181 51.7832L67.5083 70.3044L68.2181 71.838L81.0967 83.2291C81.0967 82.4741 77.3447 75.9276 73.8969 71.838L85.0515 84.1069L76.2647 71.2482L86.3698 83.7022L78.8658 70.6583L87.2825 83.1243L81.2995 69.4786L88.6007 82.2895L83.2262 69.4786L89.7162 81.5832L85.0515 70.6583L90.9838 80.7806L86.7754 71.7201L91.8212 78.7982L90.8317 76.0849L87.536 71.1892L83.6319 65.5856M106.931 82.2895L94.6851 69.4786L107.725 80.7806M106.931 82.2895L107.725 80.7806M107.725 80.7806C102.77 75.0864 95.8817 66.7181 96.6118 67.4731C97.342 68.2282 104.074 74.394 108.768 78.7982M107.725 80.7806L108.768 78.7982M108.768 78.7982L99.654 66.8833L110.196 76.0849M108.768 78.7982L110.196 76.0849M110.196 76.0849L102.189 66.2905C102.683 66.8899 105.919 69.9127 109.288 73.3484M110.196 76.0849L109.288 73.3484M103.64 51.7832L103.724 52.491M103.724 52.491L111.721 55.7942L103.92 54.1426M103.724 52.491L103.92 54.1426M109.288 73.3484C109.795 73.8656 110.305 74.392 110.809 74.921L109.288 72.8374M109.095 71.6021L103.305 64.6419L109.288 72.8374M109.095 71.6021L111.214 74.1502L108.781 69.396M109.095 71.6021L109.288 72.8374M108.781 69.396L106.347 64.6419L108.172 65.4913M108.781 69.396L108.172 65.4913M108.172 65.4913L112.431 67.4731L107.725 63.0777M107.725 63.0777L105.231 60.7489L107.361 61.4888M107.725 63.0777L107.361 61.4888M107.361 61.4888L113.242 63.5324L105.738 59.4512H106.931M106.931 59.9231V59.4512M106.931 59.4512H112.431L106.55 58.1161M106.347 57.5637H104.116L106.55 58.1161M106.347 57.5637L106.55 58.1161" stroke="#171A1C" stroke-width="3"/>
</svg>

<svg xmlns="http://www.w3.org/2000/svg" width="283" height="97" fill="none" xmlns:v="https://vecta.io/nano"><path d="M2 20.521l1.521-6.606h6.186L46.923 2l6.186 1.062 15.11 12.505 12.473 4.011 25.656-2.123 37.317 14.038 88.14 4.837L282 53.081l-34.072-10.263 28.292 11.443-31.74-11.443c9.701 3.421 29.489 14.015 27.785 12.977s-20.721-9.398-29.611-11.443l22.614 11.443-28.089-11.443 20.686 11.443-28.596-12.977 18.659 11.443-25.251-11.443 18.051 11.443-22.411-11.443 10.952 7.668-14.096-7.668 3.144 4.011-9.329-4.011h-29.611l-40.073 8.612-6.085 5.899-13.081 2.123 14.197 12.033-12.27 23.358h-7.504l3.752-3.303-3.752-8.14 5.476 5.545 8.416-14.676-12.878-10.735 2.738-13.873-6.592 33.739-5.374 11.443H94.685l5.273-3.303-3.955-8.14 6.186 5.545 4.158-5.545M2 20.521l7.707 6.134 37.216-1.298 25.352 8.848 3.382 10.263M2 20.521l32.856-3.067 4.665 2.124m66.827 63.822l-9.735-6.536-12.169-10.573-.811-.705m22.715 17.813L93.773 71.838l13.159 10.452m-.584 1.109l.584-1.109m5.5-23.782l-8.315-2.713m0 0l-.196-1.652m.196 1.652l8.315 1.77h-6.084m-3.042-8.612l-1.116-4.483-7.504-4.247m8.62 8.73c.649 1.227 5.881 3.814 8.416 4.955l-8.081-2.123m-.335-2.831l.335 2.831m-21.022 0l11.155-3.775-4.158-3.539m-6.997 7.314l-.406 7.668 1.42 6.134m-1.014-13.802l-4.361-4.581-2.601-2.733m0 0l-7.438 7.314-.71 18.521.71 1.534 12.879 11.391c0-.755-3.752-7.302-7.2-11.391l11.155 12.269-8.787-12.859L86.37 83.702l-7.504-13.044 8.417 12.466L81.3 69.479l7.301 12.811-5.374-12.811 6.49 12.105-4.665-10.925 5.932 10.122-4.208-9.061 5.046 7.078-.99-2.713-3.296-4.896-3.904-5.604m23.299 16.704L94.685 69.479l13.04 11.302m-.794 1.509l.794-1.509m0 0c-4.955-5.694-11.843-14.062-11.113-13.308s7.462 6.921 12.156 11.325m-1.043 1.982l1.043-1.982m0 0l-9.114-11.915 10.542 9.202m-1.428 2.713l1.428-2.713m0 0l-8.007-9.794c.494.599 3.73 3.622 7.099 7.058m.908 2.737l-.908-2.737m-5.648-21.565l.084.708m0 0l7.997 3.303-7.801-1.652m-.196-1.652l.196 1.652m5.368 19.206l1.521 1.573-1.521-2.084m-.193-1.235l-5.79-6.96 5.983 8.195m-.193-1.235l2.119 2.548-2.433-4.754m.314 2.206l.193 1.235m-.507-3.441l-2.434-4.754 1.825.849m.609 3.905l-.609-3.905m0 0l4.259 1.982-4.706-4.395m0 0l-2.494-2.329 2.13.74m.364 1.589l-.364-1.589m0 0l5.881 2.044-7.504-4.081h1.193m0 .472v-.472m0 0h5.5l-5.881-1.335m-.203-.552h-2.231l2.434.552m-.203-.552l.203.552" stroke="#171a1c" stroke-width="3"/></svg>
